svg/u1f31e.svg

<svg viewBox="0 0 128 128" xmlns="http://www.w3.org/2000/svg">
  <g>
    <path d="M126.99,80.89L108.1,64.13c0.02-0.1,0.04-0.2,0.06-0.3L127,47.14l-24.83-5.09l-0.07-0.12l8-24.05 L86.08,25.9l-0.12-0.08L80.86,1L64.01,20.03l-0.02,0L47.11,1.01l-5.08,24.88c-0.02,0.01-0.04,0.02-0.06,0.03l-24.07-8.04l8,24.05 c-0.04,0.04-0.07,0.09-0.11,0.13L1.01,47.11l19,16.87L20,64.03L1,80.86l24.89,5.11l0.02,0.04l-8.02,24.11l24.05-8.03l0.1,0.08 L47.14,127l16.84-19.01l0.05,0l16.87,19l5.07-24.86l0.07-0.04l24.09,8.02l-8.02-24.03l0.07-0.12L126.99,80.89z" fill="#FFB300"/>
    <radialGradient id="SVGID_1_" cx="64" cy="64" gradientUnits="userSpaceOnUse" r="75.4805">
      <stop offset="0.5558" stop-color="#FFB604"/>
      <stop offset="0.6908" stop-color="#FEC61B"/>
      <stop offset="0.8224" stop-color="#FDD835"/>
    </radialGradient>
    <path d="M126.99,80.89L108.1,64.13c0.02-0.1,0.04-0.2,0.06-0.3L127,47.14l-24.83-5.09l-0.07-0.12 l8-24.05L86.08,25.9l-0.12-0.08L80.86,1L64.01,20.03l-0.02,0L47.11,1.01l-5.08,24.88c-0.02,0.01-0.04,0.02-0.06,0.03l-24.07-8.04 l8,24.05c-0.04,0.04-0.07,0.09-0.11,0.13L1.01,47.11l19,16.87L20,64.03L1,80.86l24.89,5.11l0.02,0.04l-8.02,24.11l24.05-8.03 l0.1,0.08L47.14,127l16.84-19.01l0.05,0l16.87,19l5.07-24.86l0.07-0.04l24.09,8.02l-8.02-24.03l0.07-0.12L126.99,80.89z" fill="url(#SVGID_1_)"/>
    <circle cx="64" cy="64" fill="#FFB300" r="42.46"/>
    <radialGradient id="SVGID_2_" cx="66.1473" cy="100.9237" gradientTransform="matrix(1 0 0 1.0876 0 -8.8438)" gradientUnits="userSpaceOnUse" r="66.5699">
      <stop offset="0.6937" stop-color="#FFB604"/>
      <stop offset="0.8488" stop-color="#FEC61B"/>
      <stop offset="1" stop-color="#FDD835"/>
    </radialGradient>
    <circle cx="64" cy="64" fill="url(#SVGID_2_)" r="42.46"/>
    <g>
      <ellipse cx="46.8" cy="54.29" fill="#5D4037" rx="5.25" ry="6.17"/>
      <ellipse cx="81.2" cy="54.29" fill="#5D4037" rx="5.25" ry="6.17"/>
    </g>
    <path d="M75.81,75.67c-1.7,1.11-5.31,3.72-11.82,3.72S53.59,76.85,52,75.54c-0.73-0.61-1.66-1.1-2.34-0.59 c-0.68,0.51-0.81,1.55-0.33,2.29c1.84,2.85,6.71,7.13,14.65,7.27c7.94-0.14,12.81-4.42,14.65-7.27c0.4-0.62,0.44-1.51-0.03-1.99 C77.99,74.61,76.85,74.99,75.81,75.67z" fill="#5D4037"/>
    <path d="M58.89,69.52c-1.39-1.42-0.11-2.17,1.42-1.74c1.93,0.54,5.01,0.28,5.81-1.3 c1.52-3.04-0.38-4.76-2.74-10.02c-2.46-5.5,0.63-11.49,4.2-11.8c2.86-0.24,1.91,1.12,1.01,1.7c-1.75,1.14-3.6,4.93-0.77,9.17 c4.82,7.21,4.82,10.62,2.33,14.06C68.54,71.81,62.8,73.53,58.89,69.52z" fill="#DE7321"/>
    <g>
      <radialGradient id="SVGID_3_" cx="-1858.1588" cy="139.6084" gradientTransform="matrix(-0.7447 -0.3192 -0.3117 0.736 -1297.374 -633.6735)" gradientUnits="userSpaceOnUse" r="15.525">
        <stop offset="0" stop-color="#EF6C00"/>
        <stop offset="1" stop-color="#EF6C00" stop-opacity="0"/>
      </radialGradient>
      <path d="M50.38,71.89c-1.63,3.93-7.05,5.42-12.12,3.33 c-5.06-2.09-7.85-6.98-6.22-10.91c1.63-3.93,7.05-5.42,12.12-3.33C49.22,63.07,52.01,67.96,50.38,71.89z" fill="url(#SVGID_3_)" opacity="0.65"/>
      <radialGradient id="SVGID_4_" cx="200.2442" cy="-2.317" gradientTransform="matrix(0.7447 -0.3192 0.3117 0.736 -63.2902 127.8907)" gradientUnits="userSpaceOnUse" r="15.525">
        <stop offset="0" stop-color="#EF6C00"/>
        <stop offset="1" stop-color="#EF6C00" stop-opacity="0"/>
      </radialGradient>
      <path d="M77.62,71.89c1.63,3.93,7.05,5.42,12.12,3.33c5.06-2.09,7.85-6.98,6.22-10.91 c-1.63-3.93-7.05-5.42-12.12-3.33C78.78,63.07,75.99,67.96,77.62,71.89z" fill="url(#SVGID_4_)" opacity="0.65"/>
    </g>
  </g>
</svg>

<svg viewBox="0 0 128 128" xmlns="http://www.w3.org/2000/svg">
  <defs>
    <radialGradient id="SVGID_1_" cx="64" cy="64" gradientUnits="userSpaceOnUse" r="75.4805">
      <stop offset="0.5558" stop-color="#FFB604"/>
      <stop offset="0.6908" stop-color="#FEC61B"/>
      <stop offset="0.8224" stop-color="#FDD835"/>
    </radialGradient>
    <radialGradient id="SVGID_2_" cx="66.1473" cy="92.792218" gradientTransform="matrix(1 0 0 1.0876 0 0)" gradientUnits="userSpaceOnUse" r="66.5699">
      <stop offset="0.6937" stop-color="#FFB604"/>
      <stop offset="0.8488" stop-color="#FEC61B"/>
      <stop offset="1" stop-color="#FDD835"/>
    </radialGradient>
    <radialGradient id="SVGID_3_" cx="-78.674156" cy="50.393724" gradientTransform="matrix(-0.7447 -0.3192 -0.3117 0.736 0 0)" gradientUnits="userSpaceOnUse" r="15.525">
      <stop offset="0" stop-color="#EF6C00"/>
      <stop offset="1" stop-color="#EF6C00" stop-opacity="0"/>
    </radialGradient>
    <radialGradient id="SVGID_4_" cx="66.757571" cy="113.554968" gradientTransform="matrix(0.7447 -0.3192 0.3117 0.736 0 0)" gradientUnits="userSpaceOnUse" r="15.525">
      <stop offset="0" stop-color="#EF6C00"/>
      <stop offset="1" stop-color="#EF6C00" stop-opacity="0"/>
    </radialGradient>
  </defs>
  <path d="M126.99,80.89 L108.1,64.13 C108.12,64.03 108.14,63.93 108.16,63.83 L127,47.14 L102.17,42.05 L102.1,41.93 L110.1,17.88 L86.08,25.9 L85.96,25.82 L80.86,1 L64.01,20.03 L63.99,20.03 L47.11,1.01 L42.03,25.89 C42.01,25.9 41.99,25.91 41.97,25.92 L17.9,17.88 L25.9,41.93 C25.86,41.97 25.83,42.02 25.79,42.06 L1.01,47.11 L20.01,63.98 L20,64.03 L1,80.86 L25.89,85.97 L25.91,86.01 L17.89,110.12 L41.94,102.09 L42.04,102.17 L47.14,127 L63.98,107.99 L64.03,107.99 L80.9,126.99 L85.97,102.13 L86.04,102.09 L110.13,110.11 L102.11,86.08 L102.18,85.96 L126.99,80.89 Z" fill="#FFB300"/>
  <path d="M126.99,80.89 L108.1,64.13 C108.12,64.03 108.14,63.93 108.16,63.83 L127,47.14 L102.17,42.05 L102.1,41.93 L110.1,17.88 L86.08,25.9 L85.96,25.82 L80.86,1 L64.01,20.03 L63.99,20.03 L47.11,1.01 L42.03,25.89 C42.01,25.9 41.99,25.91 41.97,25.92 L17.9,17.88 L25.9,41.93 C25.86,41.97 25.83,42.02 25.79,42.06 L1.01,47.11 L20.01,63.98 L20,64.03 L1,80.86 L25.89,85.97 L25.91,86.01 L17.89,110.12 L41.94,102.09 L42.04,102.17 L47.14,127 L63.98,107.99 L64.03,107.99 L80.9,126.99 L85.97,102.13 L86.04,102.09 L110.13,110.11 L102.11,86.08 L102.18,85.96 L126.99,80.89 Z" fill="url(#SVGID_1_)"/>
  <path d="M106.46,64 A42.46 42.46 0 1 1 21.54,64 A42.46 42.46 0 1 1 106.46,64 Z" fill="#FFB300"/>
  <path d="M106.46,64 A42.46 42.46 0 1 1 21.54,64 A42.46 42.46 0 1 1 106.46,64 Z" fill="url(#SVGID_2_)"/>
  <path d="M52.05,54.29 A5.25 6.17 0 1 1 41.55,54.29 A5.25 6.17 0 1 1 52.05,54.29 Z" fill="#5D4037"/>
  <path d="M86.45,54.29 A5.25 6.17 0 1 1 75.95,54.29 A5.25 6.17 0 1 1 86.45,54.29 Z" fill="#5D4037"/>
  <path d="M75.81,75.67 C74.11,76.78 70.5,79.39 63.99,79.39 C57.48,79.39 53.59,76.85 52,75.54 C51.27,74.93 50.34,74.44 49.66,74.95 C48.98,75.46 48.85,76.5 49.33,77.24 C51.17,80.09 56.04,84.37 63.98,84.51 C71.92,84.37 76.79,80.09 78.63,77.24 C79.03,76.62 79.07,75.73 78.6,75.25 C77.99,74.61 76.85,74.99 75.81,75.67 Z" fill="#5D4037"/>
  <path d="M58.89,69.52 C57.5,68.1 58.78,67.35 60.31,67.78 C62.24,68.32 65.32,68.06 66.12,66.48 C67.64,63.44 65.74,61.72 63.38,56.46 C60.92,50.96 64.01,44.97 67.58,44.66 C70.44,44.42 69.49,45.78 68.59,46.36 C66.84,47.5 64.99,51.29 67.82,55.53 C72.64,62.74 72.64,66.15 70.15,69.59 C68.54,71.81 62.8,73.53 58.89,69.52 Z" fill="#DE7321"/>
  <path d="M50.38,71.89 C48.75,75.82 43.33,77.31 38.26,75.22 C33.2,73.13 30.41,68.24 32.04,64.31 C33.67,60.38 39.09,58.89 44.16,60.98 C49.22,63.07 52.01,67.96 50.38,71.89 Z" fill="url(#SVGID_3_)" opacity="0.65"/>
  <path d="M77.62,71.89 C79.25,75.82 84.67,77.31 89.74,75.22 C94.8,73.13 97.59,68.24 95.96,64.31 C94.33,60.38 88.91,58.89 83.84,60.98 C78.78,63.07 75.99,67.96 77.62,71.89 Z" fill="url(#SVGID_4_)" opacity="0.65"/>
</svg>
